X:1
T:The Jolly Pedler's -- SlipJig
R:slip jig
B:Ryan's Mammoth Collection
Z:Contributed by Ray Davies, ray:davies99.freeserve.co.uk
M:9/8
L:1/8
K:G
uG|vG"4"AG Gge dBG|"4"(A2G) ABd (e2g)|vG"4"AG Gge dBG|ABc BAG (E2G)|\
G"4"AG Gge dBG|"4"(A2G) ABd (e2g)|G"4"AG Gge dBG|ABc BAG E2|]
ug|vgdg gag fed|"4"edB gab (a2f)|gab abg fed|ege dBG "4"(A2G)|\
G"4"AG Gge dBG|"4"(A2G) ABc (e2g)|G"4"AG Gge dBG|ABc BAG E2|]
